packages/astro-components-stencil/src/icons/equalizer.svg

<svg xmlns="http://www.w3.org/2000/svg" viewBox="0 0 24 24"><g xmlns="http://www.w3.org/2000/svg" id="equalizer" fill-rule="nonzero">
            <path d="M12 20c1.1 0 2-.9 2-2V6c0-1.1-.9-2-2-2s-2 .9-2 2v12c0 1.1.9 2 2 2zm-6 0c1.1 0 2-.9 2-2v-4c0-1.1-.9-2-2-2s-2 .9-2 2v4c0 1.1.9 2 2 2zm10-9v7c0 1.1.9 2 2 2s2-.9 2-2v-7c0-1.1-.9-2-2-2s-2 .9-2 2z"/>
        </g></svg>

<svg width="24" height="24" viewBox="0 0 24 24" fill="none" xmlns="http://www.w3.org/2000/svg">
<path fill-rule="evenodd" clip-rule="evenodd" d="M12 20C13.1 20 14 19.1 14 18V6C14 4.9 13.1 4 12 4C10.9 4 10 4.9 10 6V18C10 19.1 10.9 20 12 20ZM6 20C7.1 20 8 19.1 8 18V14C8 12.9 7.1 12 6 12C4.9 12 4 12.9 4 14V18C4 19.1 4.9 20 6 20ZM16 18V11C16 9.9 16.9 9 18 9C19.1 9 20 9.9 20 11V18C20 19.1 19.1 20 18 20C16.9 20 16 19.1 16 18Z" fill="black"/>
</svg>
